!!!OTL: Graf und Nonne (Die Nonne) Ich stand auf hohen Felsen,
!!!ARE: Europa, Mitteleuropa, Oesterreich / Italia, Suedtirol, Sterzing, Pfitsch,
!!    St. Jakob
!!!YOR: 8, S. 93
!!    1941 aufgezeichnet
!!!SCT: Q0155h
!!!YEM: Copyright 1995, estate of Helmut Schaffrath.
**kern
*ICvox
*Ivox
*M6/8
*k[f#]
*G:
{8d
=1
4b
8g
8g
8f#
8g
=2
8a
8a
4.r}
{16d
16d
=3
4a
8a
8a
8g
8a
=4
4b
4.r}
{8b
=5
4dd
8cc
4a
8cc
=6
4cc
8b
4g}
{8b
=7
4a
8f#
4b
8a
=8
4g
4.r}
{8b
=9
4dd
8cc
4a
8cc
=10
4cc
8b
4g}
{8b
=11
4a
8f#
4b
8a
=12
4g
4.r}
==
!!!AGN: Ballade, Standesunterschied, Werbung, Liebe
!!!ONB: ESAC (Essen Associative Code) Database: BALLADE
!!!AMT: compound duple
!!!AIN: vox
!!!EED: Helmut Schaffrath
!!!EEV: 1.0
*-
